X:1
T:Czek Composers (round)
M:2/4
L:1/4
K:D
 A2| A2| A2|A/2-G/2 ^F| B A| G ^F| E/2D/2 ^C| ^F/2E/2 D| G/2^F/2 E|\
 ^F D| G ^F| E D| C/2B,/2 A,| D/2C/2 B,| E/2D/2 C| D2-| D D-| D z|\
